X: 812
T: Rawhide
C:Bill Monroe
B: jims roots
M:2/4
L:1/8
Q: 1/4=100
K:C
V:1 
C2 E2 F2 |: "C"[Gc][Gc][Gc][Gc] z[Gc][Gc][Gc] | [Gc][Gc][Gc][Gc] z[Gc][Gc][Gc] | [Gc][Gc][Gc][Gc] z[Gc]EC |
cBAG zCCC || "F"!//!F4 FFGA | !//!c4 dccc | "C"ecdc cdcA | _BAGF EDCA, |
"G" G,B,2D2 G2D | FEFE DCB,A, | "C"[CEc]z[CEc][CEc]- !//![C4E4c4] | [1 "C"[CEc]z !//![C4E4c4]Ez:| [2 [CEc]z[CEc][CEc] [CEc][CEc]DD ||
"E"[E2B][E2B][E2B][E2B] | E^GB^c ezee | !//!J^g4 gbga | ezee !//!e4 |"A"!//!a8 | z^c'c'a baaa |
a^c'c'a baac' | ^c'aed cAAc | "D"!//![^f4d] [fd][fd][fd]e | ^fedf edde |
^fedf ed[df][df] | !//![^f8d] | "G"G,z[G,DBg][G,DBg] [G,4D4B4g4] | [1 G,z[G,DBg][G,DBg] [G,DBg][G,DBg][G,DBg][G,Ece] | "C"[G,8E8c8e8 |]
"C"[gc'][gc'][gc'][gc'] z[gc'][gc'][gc'] | [gc'][gc'][gc'][gc'] z[gc'][gc'][gc'] | [g4c'] [gc'][gc']ec | [ce][ce][ce][ce] !//![c4e] |
"F"!//![A4f] [Af]aac' | c'd'c'g gfee | "C"ccce eggb | c'ege eAAe |
"F"f4 ffaa | !//!c'4 d'c'c'c' | "C"e'c'c'c' c'd'c'e | _begf eccc |
"G"=Bzgg ggge | bd'be gfeA | "C"!//!c8- |  c3z c'c' c'2 |
"C"!//!e'4 c'c'c'e | _begA fAeA | ccce egge | fAeA cBAG |
"F"!//!F4 ABcA | eAce AcBD | "C" !//!c4 ceec' | !//!c'4 c'c'c'e |
"F"!//!f4 gaaa | !//!c'4 d'aaa | "C"e'c'd'c' c'd'c'e | _begf eaaa |
"G"_B=Bgg ggge | bd'be gfeA | "C"!//!D[c4e4c'4] | [cec']z z4DD |
[2 "G" G,4 D4 | B4 G4 | gage fddc | BAGB AGAB ||
V:E_B, 
z[EB,][EB,] [EB,][EB,][EB,][EB,] | "F"[A,F]z[A,F][A,F] [A,F][A,F][A,F][A,F] | [A,F]z[A,F][A,F] [A,F]G,A,=B, | "C"CCCD EGAB |
% abcbook-tune_id 6298c279bda60db150bca606


% abcbook-boost 0
% abcbook-tablature 
% abcbook-transpose 
% abcbook-lastupdated 1654178426767
% abcbook-soundfonts 
% abcbook-repeats 1


